; generated by Slic3r 1.0.0RC3 on 2014-03-21 at 01:53:52

; layer_height = 0.25
; perimeters = 2
; top_solid_layers = 3
; bottom_solid_layers = 3
; fill_density = .15
; perimeter_speed = 80
; infill_speed = 70
; travel_speed = 100
; nozzle_diameter = 0.4
; filament_diameter = 1.75
; extrusion_multiplier = 0.915
; perimeters extrusion width = 0.40mm
; infill extrusion width = 0.53mm
; solid infill extrusion width = 0.53mm
; top infill extrusion width = 0.53mm
; first layer extrusion width = 0.60mm

G21 ; set units to millimeters
M107
M190 S60 ; wait for bed temperature to be reached
M104 S230 ; set temperature
G28 ; home all axes
M107
G28
G1 Z50 X0 Y0 F2000
G1 Z3 X64 Y-56
G92 E0
M109 S230 ; wait for temperature to be reached
G90 ; use absolute coordinates
G92 E0
M82 ; use absolute distances for extrusion
G1 F2400.000 E-1.50000
G1 Z0.700 F6000.000
G92 E0
G1 X16.320 Y41.250 F6000.000
G1 Z0.300 F6000.000
G1 E1.50000 F2400.000
G1 X-28.330 Y41.250 E4.33867 F1200
G1 X-29.650 Y41.080 E4.42328
G1 X-30.890 Y40.570 E4.50853
G1 X-31.950 Y39.760 E4.59334
G1 X-41.120 Y30.590 E5.41782
G1 X-41.930 Y29.530 E5.50263
G1 X-42.440 Y28.290 E5.58787
G1 X-42.610 Y26.970 E5.67249
G1 X-42.610 Y-17.680 E8.51116
G1 X-42.440 Y-19.000 E8.59577
G1 X-41.930 Y-20.240 E8.68101
G1 X-41.120 Y-21.300 E8.76583
G1 X-31.950 Y-30.470 E9.59030
G1 X-30.890 Y-31.280 E9.67512
G1 X-29.650 Y-31.790 E9.76036
G1 X-28.330 Y-31.960 E9.84497
G1 X16.320 Y-31.960 E12.68364
G1 X17.640 Y-31.790 E12.76826
G1 X18.880 Y-31.280 E12.85350
G1 X19.940 Y-30.470 E12.93831
G1 X29.110 Y-21.300 E13.76279
G1 X29.920 Y-20.240 E13.84760
G1 X30.430 Y-19.000 E13.93284
G1 X30.600 Y-17.680 E14.01746
G1 X30.600 Y26.970 E16.85613
G1 X30.430 Y28.290 E16.94074
G1 X29.920 Y29.530 E17.02598
G1 X29.110 Y30.590 E17.11080
G1 X19.940 Y39.760 E17.93527
G1 X18.880 Y40.570 E18.02009
G1 X17.640 Y41.080 E18.10533
G1 X16.403 Y41.239 E18.18463
G1 X16.320 Y40.700 F6000.000
G1 X-28.330 Y40.700 E21.02330 F1200
G1 X-29.510 Y40.540 E21.09901
G1 X-30.610 Y40.090 E21.17457
G1 X-31.550 Y39.360 E21.25023
G1 X-40.720 Y30.190 E22.07471
G1 X-41.450 Y29.250 E22.15037
G1 X-41.900 Y28.150 E22.22593
G1 X-42.060 Y26.970 E22.30164
G1 X-42.060 Y-17.680 E25.14031
G1 X-41.900 Y-18.860 E25.21602
G1 X-41.450 Y-19.960 E25.29158
G1 X-40.720 Y-20.900 E25.36724
G1 X-31.550 Y-30.070 E26.19172
G1 X-30.610 Y-30.800 E26.26739
G1 X-29.510 Y-31.250 E26.34295
G1 X-28.330 Y-31.410 E26.41865
G1 X16.320 Y-31.410 E29.25732
G1 X17.500 Y-31.250 E29.33303
G1 X18.600 Y-30.800 E29.40859
G1 X19.540 Y-30.070 E29.48425
G1 X28.710 Y-20.900 E30.30873
G1 X29.440 Y-19.960 E30.38440
G1 X29.890 Y-18.860 E30.45996
G1 X30.050 Y-17.680 E30.53566
G1 X30.050 Y26.970 E33.37433
G1 X29.890 Y28.150 E33.45004
G1 X29.440 Y29.250 E33.52560
G1 X28.710 Y30.190 E33.60127
G1 X19.540 Y39.360 E34.42574
G1 X18.600 Y40.090 E34.50141
G1 X17.500 Y40.540 E34.57697
G1 X16.403 Y40.689 E34.64736
G1 X13.403 Y40.690 F4800.000 E33.22236
G1 F2400.000 E33.14736
G1 Z0.700 F6000.000
G92 E0
G1 X-27.973 Y35.293 F6000.000
G1 Z0.300 F6000.000
G1 E1.50000 F2400.000
G1 X-36.643 Y26.623 E2.27948 F1200
G1 X-36.643 Y-17.323 E5.07344
G1 X-27.973 Y-25.993 E5.85292
G1 X15.973 Y-25.993 E8.64689
G1 X24.643 Y-17.323 E9.42636
G1 X24.643 Y26.623 E12.22033
G1 X15.973 Y35.293 E12.99980
G1 X-27.890 Y35.293 E15.78846
G1 X-28.204 Y35.850 F6000.000
G1 X-37.200 Y26.854 E16.59728 F1200
G1 X-37.200 Y-17.554 E19.42058
G1 X-28.204 Y-26.550 E20.22940
G1 X16.204 Y-26.550 E23.05270
G1 X25.200 Y-17.554 E23.86152
G1 X25.200 Y26.854 E26.68483
G1 X16.204 Y35.850 E27.49364
G1 X-28.121 Y35.850 E30.31164
G1 X-28.204 Y35.293 F6000.000
G1 X15.820 Y34.889 F6000.000
G1 X-27.820 Y34.889 E33.10059 F1200
G1 X-28.380 Y34.329 E33.15120
G1 X16.380 Y34.329 E36.01173
G1 X16.940 Y33.769 E36.06234
G1 X-28.940 Y33.769 E38.99445
G1 X-29.500 Y33.209 E39.04506
G1 X17.500 Y33.209 E42.04873
G1 X18.060 Y32.649 E42.09934
G1 X-30.060 Y32.649 E45.17459
G1 X-30.620 Y32.089 E45.22521
G1 X18.620 Y32.089 E48.37203
G1 X19.180 Y31.529 E48.42264
G1 X-31.180 Y31.529 E51.64104
G1 X-31.740 Y30.969 E51.69165
G1 X19.740 Y30.969 E54.98162
G1 X20.300 Y30.409 E55.03223
G1 X-32.300 Y30.409 E58.39378
G1 X-32.860 Y29.849 E58.44439
G1 X20.860 Y29.849 E61.87751
G1 X21.420 Y29.289 E61.92812
G1 X-33.420 Y29.289 E65.43282
G1 X-33.980 Y28.729 E65.48343
G1 X21.980 Y28.729 E69.05970
G1 X22.540 Y28.169 E69.11031
G1 X-34.540 Y28.169 E72.75816
G1 X-35.100 Y27.609 E72.80877
G1 X23.100 Y27.609 E76.52818
G1 X23.660 Y27.049 E76.57879
G1 X-35.660 Y27.049 E80.36979
G1 X-36.220 Y26.489 E80.42040
G1 X24.220 Y26.489 E84.28296
G1 X24.239 Y25.929 E84.31877
G1 X-36.239 Y25.929 E88.18377
G1 X-36.239 Y25.369 E88.21956
G1 X24.239 Y25.369 E92.08456
G1 X24.239 Y24.809 E92.12035
G1 X-36.239 Y24.809 E95.98535
G1 X-36.239 Y24.249 E96.02113
G1 X24.239 Y24.249 E99.88613
G1 X24.239 Y23.689 E99.92192
G1 X-36.239 Y23.689 E103.78692
G1 X-36.239 Y23.129 E103.82271
G1 X24.239 Y23.129 E107.68771
G1 X24.239 Y22.569 E107.72350
G1 X-36.239 Y22.569 E111.58850
G1 X-36.239 Y22.009 E111.62428
G1 X24.239 Y22.009 E115.48929
G1 X24.239 Y21.449 E115.52507
G1 X-36.239 Y21.449 E119.39007
G1 X-36.239 Y20.889 E119.42586
G1 X24.239 Y20.889 E123.29086
G1 X24.239 Y20.329 E123.32665
G1 X-36.239 Y20.329 E127.19165
G1 X-36.239 Y19.770 E127.22744
G1 X24.239 Y19.770 E131.09244
G1 X24.239 Y19.210 E131.12822
G1 X-36.239 Y19.210 E134.99322
G1 X-36.239 Y18.650 E135.02901
G1 X24.239 Y18.650 E138.89401
G1 X24.239 Y18.090 E138.92980
G1 X-36.239 Y18.090 E142.79480
G1 X-36.239 Y17.530 E142.83059
G1 X24.239 Y17.530 E146.69559
G1 X24.239 Y16.970 E146.73137
G1 X-36.239 Y16.970 E150.59637
G1 X-36.239 Y16.410 E150.63216
G1 X24.239 Y16.410 E154.49716
G1 X24.239 Y15.850 E154.53295
G1 X-36.239 Y15.850 E158.39795
G1 X-36.239 Y15.290 E158.43374
G1 X24.239 Y15.290 E162.29874
G1 X24.239 Y14.730 E162.33453
G1 X-36.239 Y14.730 E166.19953
G1 X-36.239 Y14.170 E166.23531
G1 X24.239 Y14.170 E170.10031
G1 X24.239 Y13.610 E170.13610
G1 X-36.239 Y13.610 E174.00110
G1 X-36.239 Y13.050 E174.03689
G1 X24.239 Y13.050 E177.90189
G1 X24.239 Y12.490 E177.93768
G1 X-36.239 Y12.490 E181.80268
G1 X-36.239 Y11.930 E181.83846
G1 X24.239 Y11.930 E185.70346
G1 X24.239 Y11.370 E185.73925
G1 X-36.239 Y11.370 E189.60425
G1 X-36.239 Y10.810 E189.64004
G1 X24.239 Y10.810 E193.50504
G1 X24.239 Y10.250 E193.54083
G1 X-36.239 Y10.250 E197.40583
G1 X-36.239 Y9.690 E197.44161
G1 X24.239 Y9.690 E201.30662
G1 X24.239 Y9.130 E201.34240
G1 X-36.239 Y9.130 E205.20740
G1 X-36.239 Y8.570 E205.24319
G1 X24.239 Y8.570 E209.10819
G1 X24.239 Y8.010 E209.14398
G1 X-36.239 Y8.010 E213.00898
G1 X-36.239 Y7.450 E213.04477
G1 X24.239 Y7.450 E216.90977
G1 X24.239 Y6.890 E216.94555
G1 X-36.239 Y6.890 E220.81055
G1 X-36.239 Y6.330 E220.84634
G1 X24.239 Y6.330 E224.71134
G1 X24.239 Y5.770 E224.74713
G1 X-36.239 Y5.770 E228.61213
G1 X-36.239 Y5.210 E228.64792
G1 X24.239 Y5.210 E232.51292
G1 X24.239 Y4.650 E232.54870
G1 X-36.239 Y4.650 E236.41370
G1 X-36.239 Y4.090 E236.44949
G1 X24.239 Y4.090 E240.31449
G1 X24.239 Y3.530 E240.35028
G1 X-36.239 Y3.530 E244.21528
G1 X-36.239 Y2.970 E244.25107
G1 X24.239 Y2.970 E248.11607
G1 X24.239 Y2.410 E248.15185
G1 X-36.239 Y2.410 E252.01686
G1 X-36.239 Y1.850 E252.05264
G1 X24.239 Y1.850 E255.91764
G1 X24.239 Y1.290 E255.95343
G1 X-36.239 Y1.290 E259.81843
G1 X-36.239 Y0.730 E259.85422
G1 X24.239 Y0.730 E263.71922
G1 X24.239 Y0.170 E263.75501
G1 X-36.239 Y0.170 E267.62001
G1 X-36.239 Y-0.390 E267.65579
G1 X24.239 Y-0.390 E271.52079
G1 X24.239 Y-0.950 E271.55658
G1 X-36.239 Y-0.950 E275.42158
G1 X-36.239 Y-1.510 E275.45737
G1 X24.239 Y-1.510 E279.32237
G1 X24.239 Y-2.070 E279.35816
G1 X-36.239 Y-2.070 E283.22316
G1 X-36.239 Y-2.630 E283.25894
G1 X24.239 Y-2.630 E287.12395
G1 X24.239 Y-3.190 E287.15973
G1 X-36.239 Y-3.190 E291.02473
G1 X-36.239 Y-3.750 E291.06052
G1 X24.239 Y-3.750 E294.92552
G1 X24.239 Y-4.310 E294.96131
G1 X-36.239 Y-4.310 E298.82631
G1 X-36.239 Y-4.870 E298.86210
G1 X24.239 Y-4.870 E302.72710
G1 X24.239 Y-5.430 E302.76288
G1 X-36.239 Y-5.430 E306.62788
G1 X-36.239 Y-5.990 E306.66367
G1 X24.239 Y-5.990 E310.52867
G1 X24.239 Y-6.550 E310.56446
G1 X-36.239 Y-6.550 E314.42946
G1 X-36.239 Y-7.110 E314.46525
G1 X24.239 Y-7.110 E318.33025
G1 X24.239 Y-7.670 E318.36603
G1 X-36.239 Y-7.670 E322.23103
G1 X-36.239 Y-8.230 E322.26682
G1 X24.239 Y-8.230 E326.13182
G1 X24.239 Y-8.790 E326.16761
G1 X-36.239 Y-8.790 E330.03261
G1 X-36.239 Y-9.350 E330.06840
G1 X24.239 Y-9.350 E333.93340
G1 X24.239 Y-9.910 E333.96918
G1 X-36.239 Y-9.910 E337.83419
G1 X-36.239 Y-10.470 E337.86997
G1 X24.239 Y-10.470 E341.73497
G1 X24.239 Y-11.030 E341.77076
G1 X-36.239 Y-11.030 E345.63576
G1 X-36.239 Y-11.590 E345.67155
G1 X24.239 Y-11.590 E349.53655
G1 X24.239 Y-12.150 E349.57234
G1 X-36.239 Y-12.150 E353.43734
G1 X-36.239 Y-12.710 E353.47312
G1 X24.239 Y-12.710 E357.33812
G1 X24.239 Y-13.269 E357.37391
G1 X-36.239 Y-13.269 E361.23891
G1 X-36.239 Y-13.829 E361.27470
G1 X24.239 Y-13.829 E365.13970
G1 X24.239 Y-14.389 E365.17549
G1 X-36.239 Y-14.389 E369.04049
G1 X-36.239 Y-14.949 E369.07627
G1 X24.239 Y-14.949 E372.94127
G1 X24.239 Y-15.509 E372.97706
G1 X-36.239 Y-15.509 E376.84206
G1 X-36.239 Y-16.069 E376.87785
G1 X24.239 Y-16.069 E380.74285
G1 X24.239 Y-16.629 E380.77864
G1 X-36.239 Y-16.629 E384.64364
G1 X-36.220 Y-17.189 E384.67945
G1 X24.220 Y-17.189 E388.54200
G1 X23.660 Y-17.749 E388.59262
G1 X-35.660 Y-17.749 E392.38360
G1 X-35.100 Y-18.309 E392.43421
G1 X23.100 Y-18.309 E396.15362
G1 X22.540 Y-18.869 E396.20423
G1 X-34.540 Y-18.869 E399.85207
G1 X-33.980 Y-19.429 E399.90268
G1 X21.980 Y-19.429 E403.47894
G1 X21.420 Y-19.989 E403.52955
G1 X-33.420 Y-19.989 E407.03424
G1 X-32.860 Y-20.549 E407.08485
G1 X20.860 Y-20.549 E410.51796
G1 X20.300 Y-21.109 E410.56857
G1 X-32.300 Y-21.109 E413.93011
G1 X-31.740 Y-21.669 E413.98072
G1 X19.740 Y-21.669 E417.27069
G1 X19.180 Y-22.229 E417.32130
G1 X-31.180 Y-22.229 E420.53969
G1 X-30.620 Y-22.789 E420.59030
G1 X18.620 Y-22.789 E423.73712
G1 X18.060 Y-23.349 E423.78773
G1 X-30.060 Y-23.349 E426.86297
G1 X-29.500 Y-23.909 E426.91358
G1 X17.500 Y-23.909 E429.91725
G1 X16.940 Y-24.469 E429.96786
G1 X-28.940 Y-24.469 E432.89995
G1 X-28.380 Y-25.029 E432.95057
G1 X16.380 Y-25.029 E435.81109
G1 X15.820 Y-25.589 E435.86170
G1 X-27.820 Y-25.589 E438.65064
M104 S190 ; set temperature
M140 S50 ; set bed temperature
G1 X-24.820 Y-25.589 F4800.000 E437.22564
G1 F2400.000 E437.15064
G1 Z0.950 F6000.000
G92 E0
G1 X-36.900 Y-17.430 F6000.000
G1 Z0.550 F6000.000
G1 E1.50000 F2400.000
G1 X-28.080 Y-26.250 E1.97451 F4800
G1 X16.080 Y-26.250 E3.65440
G1 X24.900 Y-17.430 E4.12891
G1 X24.900 Y26.730 E5.80881
G1 X16.080 Y35.550 E6.28331
G1 X-28.080 Y35.550 E7.96321
G1 X-36.900 Y26.730 E8.43772
G1 X-36.900 Y-17.370 E10.11533
G1 X-37.300 Y-17.596 F6000.000
G1 X-28.246 Y-26.650 E10.60244 F3840
G1 X16.246 Y-26.650 E12.29495
G1 X25.300 Y-17.596 E12.78206
G1 X25.300 Y26.896 E14.47456
G1 X16.246 Y35.950 E14.96167
G1 X-28.246 Y35.950 E16.65417
G1 X-37.300 Y26.896 E17.14129
G1 X-37.300 Y-17.536 E18.83151
G1 X-36.900 Y-17.596 F6000.000
G1 X-36.587 Y-17.314 F6000.000
G1 X-36.587 Y26.614 E20.94365 F4200
G1 X-36.081 Y27.120 E20.97802
G1 X-36.081 Y-17.820 E23.13878
G1 X-35.576 Y-18.325 E23.17316
G1 X-35.576 Y27.625 E25.38253
G1 X-35.070 Y28.131 E25.41691
G1 X-35.070 Y-18.831 E27.67490
G1 X-34.565 Y-19.337 E27.70928
G1 X-34.565 Y28.637 E30.01589
G1 X-34.059 Y29.142 E30.05026
G1 X-34.059 Y-19.842 E32.40549
G1 X-33.554 Y-20.348 E32.43987
G1 X-33.554 Y29.648 E34.84371
G1 X-33.048 Y30.153 E34.87808
G1 X-33.048 Y-20.853 E37.33054
G1 X-32.542 Y-21.359 E37.36492
G1 X-32.542 Y30.659 E39.86600
G1 X-32.037 Y31.164 E39.90037
G1 X-32.037 Y-21.864 E42.45007
G1 X-31.531 Y-22.370 E42.48444
G1 X-31.531 Y31.670 E45.08275
G1 X-31.026 Y32.176 E45.11713
G1 X-31.026 Y-22.876 E47.76406
G1 X-30.520 Y-23.381 E47.79843
G1 X-30.520 Y32.681 E50.49398
G1 X-30.015 Y33.187 E50.52836
G1 X-30.015 Y-23.887 E53.27252
G1 X-29.509 Y-24.392 E53.30689
G1 X-29.509 Y33.692 E56.09967
G1 X-29.003 Y34.198 E56.13405
G1 X-29.003 Y-24.898 E58.97544
G1 X-28.498 Y-25.403 E59.00982
G1 X-28.498 Y34.703 E61.89983
G1 X-27.992 Y35.209 E61.93421
G1 X-27.992 Y-25.909 E64.87284
G1 X-27.487 Y-25.937 E64.89718
G1 X-27.487 Y35.237 E67.83850
G1 X-26.981 Y35.237 E67.86281
G1 X-26.981 Y-25.937 E70.80413
G1 X-26.476 Y-25.937 E70.82843
G1 X-26.476 Y35.237 E73.76975
G1 X-25.970 Y35.237 E73.79406
G1 X-25.970 Y-25.937 E76.73538
G1 X-25.464 Y-25.937 E76.75969
G1 X-25.464 Y35.237 E79.70101
G1 X-24.959 Y35.237 E79.72531
G1 X-24.959 Y-25.937 E82.66663
G1 X-24.453 Y-25.937 E82.69094
G1 X-24.453 Y35.237 E85.63226
G1 X-23.948 Y35.237 E85.65657
G1 X-23.948 Y-25.937 E88.59788
G1 X-23.442 Y-25.937 E88.62219
G1 X-23.442 Y35.237 E91.56351
G1 X-22.937 Y35.237 E91.58782
G1 X-22.937 Y-25.937 E94.52914
G1 X-22.431 Y-25.937 E94.55345
G1 X-22.431 Y35.237 E97.49476
G1 X-21.925 Y35.237 E97.51907
G1 X-21.925 Y-25.937 E100.46039
G1 X-21.420 Y-25.937 E100.48470
G1 X-21.420 Y35.237 E103.42602
G1 X-20.914 Y35.237 E103.45032
G1 X-20.914 Y-25.937 E106.39164
G1 X-20.409 Y-25.937 E106.41595
G1 X-20.409 Y35.237 E109.35727
G1 X-19.903 Y35.237 E109.38158
G1 X-19.903 Y-25.937 E112.32289
G1 X-19.398 Y-25.937 E112.34720
G1 X-19.398 Y35.237 E115.28852
G1 X-18.892 Y35.237 E115.31283
G1 X-18.892 Y-25.937 E118.25415
G1 X-18.387 Y-25.937 E118.27846
G1 X-18.387 Y35.237 E121.21977
G1 X-17.881 Y35.237 E121.24408
G1 X-17.881 Y-25.937 E124.18540
G1 X-17.375 Y-25.937 E124.20971
G1 X-17.375 Y35.237 E127.15103
G1 X-16.870 Y35.237 E127.17533
G1 X-16.870 Y-25.937 E130.11665
G1 X-16.364 Y-25.937 E130.14096
G1 X-16.364 Y35.237 E133.08228
G1 X-15.859 Y35.237 E133.10659
G1 X-15.859 Y-25.937 E136.04791
G1 X-15.353 Y-25.937 E136.07221
G1 X-15.353 Y35.237 E139.01353
G1 X-14.848 Y35.237 E139.03784
G1 X-14.848 Y-25.937 E141.97916
G1 X-14.342 Y-25.937 E142.00347
G1 X-14.342 Y35.237 E144.94478
G1 X-13.836 Y35.237 E144.96909
G1 X-13.836 Y-25.937 E147.91041
G1 X-13.331 Y-25.937 E147.93472
G1 X-13.331 Y35.237 E150.87604
G1 X-12.825 Y35.237 E150.90035
G1 X-12.825 Y-25.937 E153.84166
G1 X-12.320 Y-25.937 E153.86597
G1 X-12.320 Y35.237 E156.80729
G1 X-11.814 Y35.237 E156.83160
G1 X-11.814 Y-25.937 E159.77292
G1 X-11.309 Y-25.937 E159.79722
G1 X-11.309 Y35.237 E162.73854
G1 X-10.803 Y35.237 E162.76285
G1 X-10.803 Y-25.937 E165.70417
G1 X-10.297 Y-25.937 E165.72848
G1 X-10.297 Y35.237 E168.66980
G1 X-9.792 Y35.237 E168.69410
G1 X-9.792 Y-25.937 E171.63542
G1 X-9.286 Y-25.937 E171.65973
G1 X-9.286 Y35.237 E174.60105
G1 X-8.781 Y35.237 E174.62536
G1 X-8.781 Y-25.937 E177.56667
G1 X-8.275 Y-25.937 E177.59098
G1 X-8.275 Y35.237 E180.53230
G1 X-7.770 Y35.237 E180.55661
G1 X-7.770 Y-25.937 E183.49793
G1 X-7.264 Y-25.937 E183.52224
G1 X-7.264 Y35.237 E186.46355
G1 X-6.758 Y35.237 E186.48786
G1 X-6.758 Y-25.937 E189.42918
G1 X-6.253 Y-25.937 E189.45349
G1 X-6.253 Y35.237 E192.39481
G1 X-5.747 Y35.237 E192.41911
G1 X-5.747 Y-25.937 E195.36043
G1 X-5.242 Y-25.937 E195.38474
G1 X-5.242 Y35.237 E198.32606
G1 X-4.736 Y35.237 E198.35037
G1 X-4.736 Y-25.937 E201.29168
G1 X-4.231 Y-25.937 E201.31599
G1 X-4.231 Y35.237 E204.25731
G1 X-3.725 Y35.237 E204.28162
G1 X-3.725 Y-25.937 E207.22294
G1 X-3.219 Y-25.937 E207.24725
G1 X-3.219 Y35.237 E210.18856
G1 X-2.714 Y35.237 E210.21287
G1 X-2.714 Y-25.937 E213.15419
G1 X-2.208 Y-25.937 E213.17850
G1 X-2.208 Y35.237 E216.11982
G1 X-1.703 Y35.237 E216.14412
G1 X-1.703 Y-25.937 E219.08544
G1 X-1.197 Y-25.937 E219.10975
G1 X-1.197 Y35.237 E222.05107
G1 X-0.692 Y35.237 E222.07538
G1 X-0.692 Y-25.937 E225.01670
G1 X-0.186 Y-25.937 E225.04100
G1 X-0.186 Y35.237 E227.98232
G1 X0.320 Y35.237 E228.00663
G1 X0.320 Y-25.937 E230.94795
G1 X0.825 Y-25.937 E230.97226
G1 X0.825 Y35.237 E233.91357
G1 X1.331 Y35.237 E233.93788
G1 X1.331 Y-25.937 E236.87920
G1 X1.836 Y-25.937 E236.90351
G1 X1.836 Y35.237 E239.84483
G1 X2.342 Y35.237 E239.86914
G1 X2.342 Y-25.937 E242.81045
G1 X2.847 Y-25.937 E242.83476
G1 X2.847 Y35.237 E245.77608
G1 X3.353 Y35.237 E245.80039
G1 X3.353 Y-25.937 E248.74171
G1 X3.859 Y-25.937 E248.76601
G1 X3.859 Y35.237 E251.70733
