; generated by Slic3r 1.0.0RC3 on 2014-03-14 at 18:18:19

; layer_height = 0.25
; perimeters = 2
; top_solid_layers = 3
; bottom_solid_layers = 3
; fill_density = .15
; perimeter_speed = 80
; infill_speed = 70
; travel_speed = 100
; nozzle_diameter = 0.4
; filament_diameter = 1.75
; extrusion_multiplier = 0.915
; perimeters extrusion width = 0.40mm
; infill extrusion width = 0.53mm
; solid infill extrusion width = 0.53mm
; top infill extrusion width = 0.53mm
; first layer extrusion width = 0.60mm

G21 ; set units to millimeters
M107
M190 S60 ; wait for bed temperature to be reached
M104 S230 ; set temperature
G28 ; home all axes
M107
G28
G1 Z50 X0 Y0 F2000
G1 Z3 X64 Y-56
G92 E0
M109 S230 ; wait for temperature to be reached
G90 ; use absolute coordinates
G92 E0
M82 ; use absolute distances for extrusion
G1 F2400.000 E-1.50000
G1 Z0.700 F6000.000
G92 E0
G1 X50.720 Y41.010 F6000.000
G1 Z0.300 F6000.000
G1 E1.50000 F2400.000
G1 X-62.730 Y41.010 E8.71270 F1200
G1 X-64.050 Y40.840 E8.79732
G1 X-65.290 Y40.330 E8.88256
G1 X-66.350 Y39.510 E8.96776
G1 X-75.370 Y30.480 E9.77920
G1 X-76.180 Y29.430 E9.86351
G1 X-76.690 Y28.190 E9.94875
G1 X-76.860 Y26.870 E10.03337
G1 X-76.860 Y-17.580 E12.85932
G1 X-76.690 Y-18.900 E12.94393
G1 X-76.180 Y-20.140 E13.02918
G1 X-75.370 Y-21.200 E13.11399
G1 X-66.350 Y-30.220 E13.92498
G1 X-65.290 Y-31.030 E14.00979
G1 X-64.050 Y-31.540 E14.09504
G1 X-62.730 Y-31.710 E14.17965
G1 X50.720 Y-31.710 E21.39235
G1 X52.040 Y-31.540 E21.47697
G1 X53.280 Y-31.030 E21.56221
G1 X54.340 Y-30.220 E21.64702
G1 X63.360 Y-21.200 E22.45801
G1 X64.170 Y-20.140 E22.54283
G1 X64.680 Y-18.900 E22.62807
G1 X64.850 Y-17.580 E22.71268
G1 X64.850 Y26.870 E25.53864
G1 X64.680 Y28.190 E25.62325
G1 X64.170 Y29.430 E25.70849
G1 X63.360 Y30.480 E25.79280
G1 X54.340 Y39.510 E26.60424
G1 X53.280 Y40.330 E26.68944
G1 X52.040 Y40.840 E26.77468
G1 X50.803 Y40.999 E26.85399
G1 X50.720 Y40.460 F6000.000
G1 X-62.730 Y40.460 E34.06669 F1200
G1 X-63.910 Y40.300 E34.14240
G1 X-65.010 Y39.850 E34.21796
G1 X-65.950 Y39.120 E34.29362
G1 X-74.970 Y30.090 E35.10506
G1 X-75.700 Y29.150 E35.18073
G1 X-76.150 Y28.050 E35.25629
G1 X-76.310 Y26.870 E35.33199
G1 X-76.310 Y-17.580 E38.15795
G1 X-76.150 Y-18.760 E38.23366
G1 X-75.700 Y-19.860 E38.30921
G1 X-74.970 Y-20.800 E38.38488
G1 X-65.950 Y-29.820 E39.19587
G1 X-65.010 Y-30.550 E39.27154
G1 X-63.910 Y-31.000 E39.34710
G1 X-62.730 Y-31.160 E39.42280
G1 X50.720 Y-31.160 E46.63551
G1 X51.900 Y-31.000 E46.71121
G1 X53.000 Y-30.550 E46.78677
G1 X53.940 Y-29.820 E46.86244
G1 X62.960 Y-20.800 E47.67343
G1 X63.690 Y-19.860 E47.74909
G1 X64.140 Y-18.760 E47.82465
G1 X64.300 Y-17.580 E47.90036
G1 X64.300 Y26.870 E50.72632
G1 X64.140 Y28.050 E50.80202
G1 X63.690 Y29.150 E50.87758
G1 X62.960 Y30.090 E50.95325
G1 X53.940 Y39.120 E51.76469
G1 X53.000 Y39.850 E51.84035
G1 X51.900 Y40.300 E51.91591
G1 X50.803 Y40.449 E51.98631
G1 X47.803 Y40.449 F4800.000 E50.56131
G1 F2400.000 E50.48631
G1 Z0.700 F6000.000
G92 E0
G1 X-18.630 Y35.043 F6000.000
G1 Z0.300 F6000.000
G1 E1.50000 F2400.000
G1 X-62.370 Y35.043 E4.28080 F1200
G1 X-70.893 Y26.520 E5.04711
G1 X-70.893 Y-17.220 E7.82791
G1 X-62.370 Y-25.743 E8.59422
G1 X-18.630 Y-25.743 E11.37502
G1 X-10.107 Y-17.220 E12.14133
G1 X-10.107 Y26.520 E14.92212
G1 X-18.571 Y34.984 E15.68312
G1 X-18.399 Y35.600 F6000.000
G1 X-62.601 Y35.600 E18.49326 F1200
G1 X-71.450 Y26.751 E19.28891
G1 X-71.450 Y-17.451 E22.09905
G1 X-62.601 Y-26.300 E22.89470
G1 X-18.399 Y-26.300 E25.70484
G1 X-9.550 Y-17.451 E26.50049
G1 X-9.550 Y26.751 E29.31063
G1 X-18.340 Y35.541 E30.10096
G1 X-18.793 Y35.206 F6000.000
G1 X-18.783 Y34.639 F6000.000
G1 X-62.217 Y34.639 E32.87946 F1200
G1 X-62.777 Y34.079 E32.93017
G1 X-18.223 Y34.079 E35.78039
G1 X-17.662 Y33.518 E35.83110
G1 X-63.338 Y33.518 E38.75303
G1 X-63.898 Y32.957 E38.80375
G1 X-17.102 Y32.957 E41.79740
G1 X-16.541 Y32.397 E41.84811
G1 X-64.459 Y32.397 E44.91348
G1 X-65.019 Y31.836 E44.96419
G1 X-15.981 Y31.836 E48.10127
G1 X-15.420 Y31.276 E48.15198
G1 X-65.580 Y31.276 E51.36079
G1 X-66.141 Y30.715 E51.41150
G1 X-14.859 Y30.715 E54.69202
G1 X-14.299 Y30.155 E54.74273
G1 X-66.701 Y30.155 E58.09497
G1 X-67.262 Y29.594 E58.14568
G1 X-13.738 Y29.594 E61.56964
G1 X-13.178 Y29.034 E61.62035
G1 X-67.822 Y29.034 E65.11602
G1 X-68.383 Y28.473 E65.16673
G1 X-12.617 Y28.473 E68.73412
G1 X-12.057 Y27.913 E68.78483
G1 X-68.943 Y27.913 E72.42394
G1 X-69.504 Y27.352 E72.47465
G1 X-11.496 Y27.352 E76.18548
G1 X-10.936 Y26.791 E76.23619
G1 X-70.064 Y26.791 E80.01873
G1 X-70.489 Y26.231 E80.06372
G1 X-10.511 Y26.231 E83.90061
G1 X-10.511 Y25.670 E83.93647
G1 X-70.489 Y25.670 E87.77335
G1 X-70.489 Y25.110 E87.80921
G1 X-10.511 Y25.110 E91.64610
G1 X-10.511 Y24.549 E91.68195
G1 X-70.489 Y24.549 E95.51884
G1 X-70.489 Y23.989 E95.55470
G1 X-10.511 Y23.989 E99.39158
G1 X-10.511 Y23.428 E99.42744
G1 X-70.489 Y23.428 E103.26433
G1 X-70.489 Y22.868 E103.30018
G1 X-10.511 Y22.868 E107.13707
G1 X-10.511 Y22.307 E107.17293
G1 X-70.489 Y22.307 E111.00981
G1 X-70.489 Y21.747 E111.04567
G1 X-10.511 Y21.747 E114.88256
G1 X-10.511 Y21.186 E114.91842
G1 X-70.489 Y21.186 E118.75530
G1 X-70.489 Y20.625 E118.79116
G1 X-10.511 Y20.625 E122.62804
G1 X-10.511 Y20.065 E122.66390
G1 X-70.489 Y20.065 E126.50079
G1 X-70.489 Y19.504 E126.53665
G1 X-10.511 Y19.504 E130.37353
G1 X-10.511 Y18.944 E130.40939
G1 X-70.489 Y18.944 E134.24627
G1 X-70.489 Y18.383 E134.28213
G1 X-10.511 Y18.383 E138.11902
G1 X-10.511 Y17.823 E138.15488
G1 X-70.489 Y17.823 E141.99176
G1 X-70.489 Y17.262 E142.02762
G1 X-10.511 Y17.262 E145.86450
G1 X-10.511 Y16.702 E145.90036
G1 X-70.489 Y16.702 E149.73725
G1 X-70.489 Y16.141 E149.77311
G1 X-10.511 Y16.141 E153.60999
G1 X-10.511 Y15.581 E153.64585
G1 X-70.489 Y15.581 E157.48274
G1 X-70.489 Y15.020 E157.51859
G1 X-10.511 Y15.020 E161.35548
G1 X-10.511 Y14.459 E161.39134
G1 X-70.489 Y14.459 E165.22822
G1 X-70.489 Y13.899 E165.26408
G1 X-10.511 Y13.899 E169.10097
G1 X-10.511 Y13.338 E169.13682
G1 X-70.489 Y13.338 E172.97371
G1 X-70.489 Y12.778 E173.00957
G1 X-10.511 Y12.778 E176.84645
G1 X-10.511 Y12.217 E176.88231
G1 X-70.489 Y12.217 E180.71920
G1 X-70.489 Y11.657 E180.75505
G1 X-10.511 Y11.657 E184.59194
G1 X-10.511 Y11.096 E184.62780
G1 X-70.489 Y11.096 E188.46468
G1 X-70.489 Y10.536 E188.50054
G1 X-10.511 Y10.536 E192.33743
G1 X-10.511 Y9.975 E192.37329
G1 X-70.489 Y9.975 E196.21017
G1 X-70.489 Y9.415 E196.24603
G1 X-10.511 Y9.415 E200.08291
G1 X-10.511 Y8.854 E200.11877
G1 X-70.489 Y8.854 E203.95566
G1 X-70.489 Y8.293 E203.99152
G1 X-10.511 Y8.293 E207.82840
G1 X-10.511 Y7.733 E207.86426
G1 X-70.489 Y7.733 E211.70114
G1 X-70.489 Y7.172 E211.73700
G1 X-10.511 Y7.172 E215.57389
G1 X-10.511 Y6.612 E215.60975
G1 X-70.489 Y6.612 E219.44663
G1 X-70.489 Y6.051 E219.48249
G1 X-10.511 Y6.051 E223.31937
G1 X-10.511 Y5.491 E223.35523
G1 X-70.489 Y5.491 E227.19212
G1 X-70.489 Y4.930 E227.22798
G1 X-10.511 Y4.930 E231.06486
G1 X-10.511 Y4.370 E231.10072
G1 X-70.489 Y4.370 E234.93760
G1 X-70.489 Y3.809 E234.97346
G1 X-10.511 Y3.809 E238.81035
G1 X-10.511 Y3.249 E238.84621
G1 X-70.489 Y3.249 E242.68309
G1 X-70.489 Y2.688 E242.71895
G1 X-10.511 Y2.688 E246.55584
G1 X-10.511 Y2.128 E246.59169
G1 X-70.489 Y2.128 E250.42858
G1 X-70.489 Y1.567 E250.46444
G1 X-10.511 Y1.567 E254.30132
G1 X-10.511 Y1.006 E254.33718
G1 X-70.489 Y1.006 E258.17407
G1 X-70.489 Y0.446 E258.20992
G1 X-10.511 Y0.446 E262.04681
G1 X-10.511 Y-0.115 E262.08267
G1 X-70.489 Y-0.115 E265.91955
G1 X-70.489 Y-0.675 E265.95541
G1 X-10.511 Y-0.675 E269.79230
G1 X-10.511 Y-1.236 E269.82816
G1 X-70.489 Y-1.236 E273.66504
G1 X-70.489 Y-1.796 E273.70090
G1 X-10.511 Y-1.796 E277.53778
G1 X-10.511 Y-2.357 E277.57364
G1 X-70.489 Y-2.357 E281.41053
G1 X-70.489 Y-2.917 E281.44639
G1 X-10.511 Y-2.917 E285.28327
G1 X-10.511 Y-3.478 E285.31913
G1 X-70.489 Y-3.478 E289.15601
G1 X-70.489 Y-4.038 E289.19187
G1 X-10.511 Y-4.038 E293.02876
G1 X-10.511 Y-4.599 E293.06462
G1 X-70.489 Y-4.599 E296.90150
G1 X-70.489 Y-5.160 E296.93736
G1 X-10.511 Y-5.160 E300.77424
G1 X-10.511 Y-5.720 E300.81010
G1 X-70.489 Y-5.720 E304.64699
G1 X-70.489 Y-6.281 E304.68285
G1 X-10.511 Y-6.281 E308.51973
G1 X-10.511 Y-6.841 E308.55559
G1 X-70.489 Y-6.841 E312.39247
G1 X-70.489 Y-7.402 E312.42833
G1 X-10.511 Y-7.402 E316.26522
G1 X-10.511 Y-7.962 E316.30108
G1 X-70.489 Y-7.962 E320.13796
G1 X-70.489 Y-8.523 E320.17382
G1 X-10.511 Y-8.523 E324.01071
G1 X-10.511 Y-9.083 E324.04656
G1 X-70.489 Y-9.083 E327.88345
G1 X-70.489 Y-9.644 E327.91931
G1 X-10.511 Y-9.644 E331.75619
G1 X-10.511 Y-10.204 E331.79205
G1 X-70.489 Y-10.204 E335.62894
G1 X-70.489 Y-10.765 E335.66479
G1 X-10.511 Y-10.765 E339.50168
G1 X-10.511 Y-11.326 E339.53754
G1 X-70.489 Y-11.326 E343.37442
G1 X-70.489 Y-11.886 E343.41028
G1 X-10.511 Y-11.886 E347.24717
G1 X-10.511 Y-12.447 E347.28303
G1 X-70.489 Y-12.447 E351.11991
G1 X-70.489 Y-13.007 E351.15577
G1 X-10.511 Y-13.007 E354.99265
G1 X-10.511 Y-13.568 E355.02851
G1 X-70.489 Y-13.568 E358.86540
G1 X-70.489 Y-14.128 E358.90126
G1 X-10.511 Y-14.128 E362.73814
G1 X-10.511 Y-14.689 E362.77400
G1 X-70.489 Y-14.689 E366.61088
G1 X-70.489 Y-15.249 E366.64674
G1 X-10.511 Y-15.249 E370.48363
G1 X-10.511 Y-15.810 E370.51949
G1 X-70.489 Y-15.810 E374.35637
G1 X-70.489 Y-16.370 E374.39223
G1 X-10.511 Y-16.370 E378.22911
G1 X-10.511 Y-16.931 E378.26497
G1 X-70.489 Y-16.931 E382.10186
G1 X-70.064 Y-17.492 E382.14685
G1 X-10.936 Y-17.492 E385.92938
G1 X-11.496 Y-18.052 E385.98010
G1 X-69.504 Y-18.052 E389.69091
G1 X-68.943 Y-18.613 E389.74162
G1 X-12.057 Y-18.613 E393.38072
G1 X-12.617 Y-19.173 E393.43144
G1 X-68.383 Y-19.173 E396.99882
G1 X-67.822 Y-19.734 E397.04953
G1 X-13.178 Y-19.734 E400.54519
G1 X-13.738 Y-20.294 E400.59591
G1 X-67.262 Y-20.294 E404.01985
G1 X-66.701 Y-20.855 E404.07056
G1 X-14.299 Y-20.855 E407.42279
G1 X-14.860 Y-21.415 E407.47350
G1 X-66.140 Y-21.415 E410.75402
G1 X-65.580 Y-21.976 E410.80473
G1 X-15.420 Y-21.976 E414.01352
G1 X-15.981 Y-22.536 E414.06423
G1 X-65.019 Y-22.536 E417.20131
G1 X-64.459 Y-23.097 E417.25202
G1 X-16.541 Y-23.097 E420.31738
G1 X-17.102 Y-23.657 E420.36809
G1 X-63.898 Y-23.657 E423.36173
G1 X-63.338 Y-24.218 E423.41245
G1 X-17.662 Y-24.218 E426.33437
G1 X-18.223 Y-24.779 E426.38508
G1 X-62.777 Y-24.779 E429.23529
G1 X-62.217 Y-25.339 E429.28600
G1 X-18.783 Y-25.339 E432.06449
G1 X-21.783 Y-25.339 F4800.000 E430.63949
G1 F2400.000 E430.56449
G1 Z0.700 F6000.000
G92 E0
G1 X45.908 Y22.858 F6000.000
G1 Z0.300 F6000.000
G1 E1.50000 F2400.000
G1 X50.790 Y22.858 E1.81034 F1200
G1 X50.790 Y34.131 E2.52702
G1 X45.908 Y34.131 E2.83736
G1 X45.908 Y22.941 E3.54872
G1 X46.465 Y23.415 F6000.000
G1 X50.233 Y23.415 E3.78823 F1200
G1 X50.233 Y33.573 E4.43407
G1 X46.465 Y33.573 E4.67358
G1 X46.465 Y23.499 E5.31411
G1 X46.465 Y22.858 F6000.000
G1 X6.630 Y35.043 F6000.000
G1 X-1.893 Y26.520 E6.08042 F1200
G1 X-1.893 Y-17.220 E8.86122
G1 X6.630 Y-25.743 E9.62753
G1 X50.370 Y-25.743 E12.40832
G1 X58.893 Y-17.220 E13.17463
G1 X58.893 Y26.520 E15.95543
G1 X50.370 Y35.043 E16.72174
G1 X6.714 Y35.043 E19.49723
G1 X6.399 Y35.600 F6000.000
G1 X-2.450 Y26.751 E20.29288 F1200
G1 X-2.450 Y-17.451 E23.10302
G1 X6.399 Y-26.300 E23.89867
G1 X50.601 Y-26.300 E26.70881
G1 X59.450 Y-17.451 E27.50446
G1 X59.450 Y26.751 E30.31460
G1 X50.601 Y35.600 E31.11025
G1 X6.483 Y35.600 E33.91507
G1 X6.399 Y35.043 F6000.000
G1 X46.905 Y25.405 F6000.000
G1 X47.008 Y25.515 E33.92466 F1200
G1 X49.515 Y25.515 E34.08402
G1 X49.881 Y25.413 E34.10818
G1 X49.703 Y25.479 F6000.000
G1 X49.793 Y25.633 E34.11958 F1200
G1 X49.703 Y25.479 F4800.000 E34.03447
G1 F2400.000 E32.61958
G1 Z0.700 F6000.000
G92 E0
G1 X49.881 Y27.388 F6000.000
G1 Z0.300 F6000.000
G1 E1.50000 F2400.000
G1 X49.515 Y27.515 E1.52464 F1200
G1 X47.183 Y27.474 E1.67290
G1 X46.817 Y27.601 E1.69754
G1 X47.008 Y27.515 F6000.000
G1 X46.905 Y27.380 E1.70831 F1200
G1 X47.008 Y27.515 F4800.000 E1.62786
G1 F2400.000 E0.20831
G1 Z0.700 F6000.000
G92 E0
G1 X46.817 Y25.626 F6000.000
G1 Z0.300 F6000.000
G1 E1.50000 F2400.000
G1 X47.008 Y25.515 E1.51406 F1200
G1 X46.817 Y25.626 F4800.000 E1.40901
G1 F2400.000 E0.01406
G1 Z0.700 F6000.000
G92 E0
G1 X49.690 Y27.474 F6000.000
G1 Z0.300 F6000.000
G1 E1.50000 F2400.000
G1 X49.793 Y27.608 E1.51077 F1200
G1 X49.690 Y27.474 F4800.000 E1.43033
G1 F2400.000 E0.01077
G1 Z0.700 F6000.000
G92 E0
G1 X49.881 Y29.363 F6000.000
G1 Z0.300 F6000.000
G1 E1.50000 F2400.000
G1 X49.515 Y29.515 E1.52521 F1200
G1 X47.183 Y29.474 E1.67347
G1 X46.817 Y29.576 E1.69763
G1 X46.995 Y29.510 F6000.000
G1 X46.905 Y29.355 E1.70903 F1200
G1 X46.995 Y29.510 F4800.000 E1.62391
G1 F2400.000 E0.20903
G1 Z0.700 F6000.000
G92 E0
G1 X46.905 Y31.355 F6000.000
G1 Z0.300 F6000.000
G1 E1.50000 F2400.000
G1 X46.995 Y31.510 E1.51139 F1200
G1 X46.817 Y31.576 F6000.000
G1 X47.183 Y31.474 E1.53555 F1200
G1 X49.515 Y31.515 E1.68382
G1 X49.881 Y31.337 E1.70968
G1 X49.705 Y31.480 F6000.000
G1 X49.793 Y31.697 E1.72462 F1200
G1 X49.705 Y31.480 F4800.000 E1.61300
G1 F2400.000 E0.22462
G1 Z0.700 F6000.000
G92 E0
G1 X49.793 Y29.583 F6000.000
G1 Z0.300 F6000.000
G1 E1.50000 F2400.000
G1 X49.690 Y29.474 E1.50958 F1200
G1 X49.793 Y29.583 F4800.000 E1.43799
G1 F2400.000 E0.00958
G1 Z0.700 F6000.000
G92 E0
G1 X51.775 Y32.687 F6000.000
G1 Z0.300 F6000.000
G1 E1.50000 F2400.000
G1 X51.462 Y32.687 E1.51993 F1200
G1 X51.462 Y32.129 E1.55546
G1 X52.333 Y32.129 E1.61092
G1 X52.891 Y31.571 E1.66116
G1 X51.462 Y31.571 E1.75215
G1 X51.462 Y31.013 E1.78767
G1 X53.449 Y31.013 E1.91419
G1 X54.007 Y30.455 E1.96443
G1 X51.462 Y30.455 E2.12647
G1 X51.462 Y29.897 E2.16199
G1 X54.565 Y29.897 E2.35956
G1 X55.123 Y29.339 E2.40980
G1 X51.462 Y29.339 E2.64289
G1 X51.462 Y28.781 E2.67842
G1 X55.681 Y28.781 E2.94704
G1 X56.239 Y28.223 E2.99728
G1 X51.462 Y28.223 E3.30143
G1 X51.462 Y27.665 E3.33695
G1 X56.797 Y27.665 E3.67662
G1 X57.355 Y27.107 E3.72687
G1 X51.462 Y27.107 E4.10206
G1 X51.462 Y26.549 E4.13759
G1 X57.913 Y26.549 E4.54831
G1 X58.211 Y25.991 E4.58859
G1 X51.462 Y25.991 E5.01829
G1 X51.462 Y25.433 E5.05382
G1 X58.211 Y25.433 E5.48352
G1 X58.211 Y24.876 E5.51904
G1 X51.462 Y24.876 E5.94874
G1 X51.462 Y24.318 E5.98427
G1 X58.211 Y24.318 E6.41397
G1 X58.211 Y23.760 E6.44950
G1 X51.462 Y23.760 E6.87920
G1 X51.462 Y23.202 E6.91472
G1 X58.211 Y23.202 E7.34442
G1 X58.211 Y22.644 E7.37995
G1 X51.462 Y22.644 E7.80965
G1 X45.236 Y22.644 F6000.000
G1 X-1.489 Y22.644 E10.78483 F1200
G1 X-1.489 Y23.202 E10.82035
G1 X45.236 Y23.202 E13.79553
G1 X45.236 Y23.760 E13.83106
G1 X-1.489 Y23.760 E16.80623
G1 X-1.489 Y24.318 E16.84176
G1 X45.236 Y24.318 E19.81693
G1 X45.236 Y24.876 E19.85246
G1 X-1.489 Y24.876 E22.82764
G1 X-1.489 Y25.433 E22.86316
G1 X45.236 Y25.433 E25.83834
G1 X45.236 Y25.991 E25.87387
G1 X-1.470 Y25.991 E28.84786
G1 X-0.913 Y26.549 E28.89810
G1 X45.236 Y26.549 E31.83656
G1 X45.236 Y27.107 E31.87209
G1 X-0.355 Y27.107 E34.77503
G1 X0.203 Y27.665 E34.82527
G1 X45.236 Y27.665 E37.69268
G1 X45.236 Y28.223 E37.72821
G1 X0.761 Y28.223 E40.56009
G1 X1.319 Y28.781 E40.61034
G1 X45.236 Y28.781 E43.40669
G1 X45.236 Y29.339 E43.44222
G1 X1.877 Y29.339 E46.20305
G1 X2.435 Y29.897 E46.25329
G1 X45.236 Y29.897 E48.97860
G1 X45.236 Y30.455 E49.01413
G1 X2.993 Y30.455 E51.70391
G1 X3.551 Y31.013 E51.75415
G1 X45.236 Y31.013 E54.40840
G1 X45.236 Y31.571 E54.44393
G1 X4.109 Y31.571 E57.06265
G1 X4.667 Y32.129 E57.11290
G1 X45.236 Y32.129 E59.69610
G1 X45.236 Y32.687 E59.73162
G1 X5.225 Y32.687 E62.27930
G1 X5.783 Y33.245 E62.32954
G1 X45.236 Y33.245 E64.84168
G1 X45.236 Y33.803 E64.87721
G1 X6.341 Y33.803 E67.35383
G1 X6.899 Y34.361 E67.40407
G1 X45.236 Y34.361 E69.84517
G1 X42.236 Y34.361 F4800.000 E68.42017
G1 F2400.000 E68.34517
G1 Z0.700 F6000.000
G92 E0
G1 X58.211 Y22.086 F6000.000
G1 Z0.300 F6000.000
G1 E1.50000 F2400.000
G1 X-1.489 Y22.086 E5.30133 F1200
G1 X-1.489 Y21.528 E5.33686
G1 X58.211 Y21.528 E9.13819
G1 X58.211 Y20.970 E9.17371
G1 X-1.489 Y20.970 E12.97504
G1 X-1.489 Y20.412 E13.01057
G1 X58.211 Y20.412 E16.81190
G1 X58.211 Y19.854 E16.84743
G1 X-1.489 Y19.854 E20.64876
G1 X-1.489 Y19.296 E20.68428
